doodle/src/images/eraser.svg

<?xml version="1.0" encoding="iso-8859-1"?>
<!-- Generator: Adobe Illustrator 19.0.0, SVG Export Plug-In . SVG Version: 6.00 Build 0)  -->
<svg version="1.1" id="Layer_1" xmlns="http://www.w3.org/2000/svg" xmlns:xlink="http://www.w3.org/1999/xlink" x="0px" y="0px"
	 viewBox="0 0 512 512" style="enable-background:new 0 0 512 512;" xml:space="preserve">
<g>
	<g>
		<path d="M493.611,157.515L372.952,36.856c-24.477-24.478-64.308-24.479-88.789,0L18.389,302.631C6.53,314.489,0,330.255,0,347.025
			s6.53,32.535,18.389,44.394l102.084,102.084H246.41l247.2-247.2C505.47,234.444,512,218.679,512,201.909
			C512,185.139,505.47,169.373,493.611,157.515z M232.58,460.112h-98.277L42,367.807c-5.552-5.551-8.608-12.931-8.608-20.782
			s3.056-15.231,8.608-20.783L163.082,205.16l162.224,162.225L232.58,460.112z M470,222.692L348.918,343.774L186.693,181.549
			L307.775,60.467c11.46-11.46,30.107-11.459,41.567,0L470,181.125c5.552,5.551,8.608,12.931,8.608,20.783
			C478.609,209.759,475.552,217.14,470,222.692z"/>
	</g>
</g>
<g>
</g>
<g>
</g>
<g>
</g>
<g>
</g>
<g>
</g>
<g>
</g>
<g>
</g>
<g>
</g>
<g>
</g>
<g>
</g>
<g>
</g>
<g>
</g>
<g>
</g>
<g>
</g>
<g>
</g>
</svg>

<?xml version="1.0" encoding="UTF-8" standalone="no"?>
<!DOCTYPE svg PUBLIC "-//W3C//DTD SVG 1.1//EN" "http://www.w3.org/Graphics/SVG/1.1/DTD/svg11.dtd">
<svg width="100%" height="100%" viewBox="0 0 512 512" version="1.1" xmlns="http://www.w3.org/2000/svg" xmlns:xlink="http://www.w3.org/1999/xlink" xml:space="preserve" xmlns:serif="http://www.serif.com/" style="fill-rule:evenodd;clip-rule:evenodd;stroke-linejoin:round;stroke-miterlimit:2;">
    <g transform="matrix(1,0,0,1.04039,0,-19.9305)">
        <g>
            <path d="M493.611,157.515L372.952,36.856C348.475,12.378 308.644,12.377 284.163,36.856L18.389,302.631C6.53,314.489 0,330.255 0,347.025C0,363.795 6.53,379.56 18.389,391.419L120.473,493.503L246.41,493.503L493.61,246.303C505.47,234.444 512,218.679 512,201.909C512,185.139 505.47,169.373 493.611,157.515ZM232.58,460.112L134.303,460.112L42,367.807C36.448,362.256 33.392,354.876 33.392,347.025C33.392,339.174 36.448,331.794 42,326.242L163.082,205.16L325.306,367.385L232.58,460.112ZM470,222.692L348.918,343.774L186.693,181.549L307.775,60.467C319.235,49.007 337.882,49.008 349.342,60.467L470,181.125C475.552,186.676 478.608,194.056 478.608,201.908C478.609,209.759 475.552,217.14 470,222.692Z" style="fill:white;fill-rule:nonzero;"/>
        </g>
    </g>
</svg>
